img/quote.svg

<svg width="41" height="41" viewBox="0 0 41 41" fill="none" xmlns="http://www.w3.org/2000/svg">
<path d="M2.89412 34.9706H11.5765L17.3647 23.3941V6.02942H0V23.3941H8.68235L2.89412 34.9706ZM26.0471 34.9706H34.7294L40.5176 23.3941V6.02942H23.1529V23.3941H31.8353L26.0471 34.9706Z" fill="black"/>
<path d="M2.89412 34.9706H11.5765L17.3647 23.3941V6.02942H0V23.3941H8.68235L2.89412 34.9706ZM26.0471 34.9706H34.7294L40.5176 23.3941V6.02942H23.1529V23.3941H31.8353L26.0471 34.9706Z" fill="url(#paint0_linear_1_475)"/>
<defs>
<linearGradient id="paint0_linear_1_475" x1="8.38741" y1="6.02942" x2="41" y2="30.5" gradientUnits="userSpaceOnUse">
<stop stop-color="#FF782C"/>
<stop offset="1" stop-color="#DF1A62"/>
</linearGradient>
</defs>
</svg>

<svg width="41" height="41" fill="none" xmlns="http://www.w3.org/2000/svg"><path d="M2.894 34.97h8.682l5.789-11.576V6.03H0v17.365h8.682L2.894 34.971Zm23.153 0h8.682l5.789-11.576V6.03H23.153v17.365h8.682l-5.788 11.577Z" fill="#000"/><path d="M2.894 34.97h8.682l5.789-11.576V6.03H0v17.365h8.682L2.894 34.971Zm23.153 0h8.682l5.789-11.576V6.03H23.153v17.365h8.682l-5.788 11.577Z" fill="url(#a)"/><defs><linearGradient id="a" x1="8.387" y1="6.029" x2="41" y2="30.5" gradientUnits="userSpaceOnUse"><stop stop-color="#FF782C"/><stop offset="1" stop-color="#DF1A62"/></linearGradient></defs></svg>
